!! Orlando di Lasso, "Exspectatio justorum" 2-part polyphony; alla breve;
!! No. 5 from "Examples of Gregorian Chant & Works ...", compiled
!! by Gustave Soderlund, Appleton-Century-Crofts (New York), 1937; p. 13
**kern	**kern
*M4/2	*M4/2
=1	=1
1.a	0r
2a	.
=2	=2
2a	1r
2a	.
2b-	[1dd
2g	.
=3	=3
2.b-	2dd]
.	2dd
4a	.
4g	2dd
4f	.
2g	2dd
=4	=4
1d	2ff
.	2dd
2r	2.ff
2B-	.
.	4ee
=5	=5
4B-	4dd
4A	4cc
4B-	2dd
4c	.
4d	1a
4e	.
4f	.
4g	.
=6	=6
4a	2r
4g	.
4a	2f
4b-	.
2cc	4f
.	4e
2cc	4f
.	4g
=7	=7
1f	4a
.	4b-
.	4cc
.	4dd
2r	4ee
.	4dd
2c	4ee
.	4ff
=8	=8
4e	2gg
4f	.
4g	2gg
4e	.
4f	1cc
4e	.
4f	.
4g	.
=9	=9
4a	2r
4e	.
1f	2a
.	4cc
.	4dd
2c	4ee
.	4cc
=10	=10
2r	4dd
.	4cc
2B-	4dd
.	4ee
2A	4ff
.	4cc
4B-	[2dd
4c	.
=11	=11
4d	2dd]
4e	.
2f	2a
[1d	2r
.	2b-
=12	=12
1d]	2a
.	4b-
.	4cc
2.b-	4dd
.	4ee
.	2ff
4a	.
=13	=13
4b-	1dd
4g	.
2.b-	.
.	2.ff
4a	.
4f	.
4g	4ee
=14	=14
4a	4ff
4b-	4dd
2.a	2ff
.	4ee
4f	4dd
2g	[2dd
=15	=15
1e	4dd]
.	8cc#
.	8b
.	2cc#
[1d	1dd
=16	=16
1d]	2r
.	1ff
2r	.
[2a	2ff
=17	=17
2a]	1ff
2a	.
1a	1ee
=18	=18
1g	2r
.	2.gg
2.b-	.
.	4ff
.	[2ff
4a	.
=19	=19
2.a	4ff]
.	4ee
.	1ee
4g	.
2f	.
2f	2dd
=20	=20
2e	1ee
2.c	.
.	1gg
4d	.
4e	.
4f	.
=21	=21
4g	1dd
4a	.
4b-	.
4g	.
2a	2.ff
[2b-	.
.	4ee
=22	=22
2b-]	2dd
1a	2cc
.	1b-
2g	.
=23	=23
0a	2r
.	2a
.	4cc
.	4dd
.	4ee
.	4cc
=24	=24
2r	1ff
2d	.
4f	1cc
4g	.
4a	.
4f	.
=25	=25
1b-	2dd
.	2g
1f	2a
.	2cc
=26	=26
2g	2.b-
2d	.
.	8a
.	8b-
2e	2cc
2g	2b-
=27	=27
2.f	2r
.	2cc
8e	.
8f	.
2g	2b-
2f	2a
=28	=28
2r	1dd
2f	.
2e	2cc
2d	[2b-
=29	=29
1g	4b-]
.	4a
.	4b-
.	4cc
1f	4dd
.	4ee
.	[2ff
=30	=30
2.g	4ff]
.	4ee
.	2.ee
4a	.
2.f	.
.	4dd
.	[2dd
4g	.
=31	=31
2.e	4dd]
.	4cc
.	2.cc
4f	.
2.d	.
.	4b-
.	[2b-
4e-	.
=32	=32
2.c	4b-]
.	4a
.	2.a
4d	.
1B-	.
.	8g
.	8f
.	2g
=33	=33
0A;	0a;
==	==
*-	*-
